svgs/steam.svg

<svg width="24" height="24" viewBox="0 0 24 24" fill="none" xmlns="http://www.w3.org/2000/svg">
<path d="M11.9827 2C6.72034 2 2.4094 6.05062 2 11.1979L7.36904 13.4139C7.82384 13.103 8.37379 12.9219 8.96483 12.9219C9.01816 12.9219 9.07078 12.9234 9.12268 12.9262L11.5106 9.47094V9.42246C11.5106 7.34332 13.2051 5.65134 15.2882 5.65134C17.3712 5.65134 19.0657 7.34332 19.0657 9.42246C19.0657 11.5016 17.3712 13.1943 15.2882 13.1943C15.2593 13.1943 15.2312 13.1936 15.2024 13.1929L11.7967 15.6178C11.7989 15.6627 11.8003 15.7077 11.8003 15.7519C11.8003 17.3134 10.5282 18.5832 8.96483 18.5832C7.59248 18.5832 6.44428 17.605 6.18481 16.3102L2.34453 14.7251C3.5338 18.9226 7.39715 22 11.9827 22C17.5154 22 22 17.5223 22 12C22 6.47701 17.5154 2 11.9827 2ZM8.2775 17.1733L7.04714 16.6657C7.26481 17.1191 7.6425 17.4985 8.14343 17.7067C9.22603 18.1573 10.4744 17.6446 10.9256 16.563C11.144 16.0396 11.1455 15.4621 10.9292 14.9373C10.713 14.4125 10.3043 14.0033 9.78031 13.7851C9.25919 13.5691 8.70131 13.5769 8.21119 13.7616L9.48263 14.2863C10.2812 14.6186 10.6589 15.5341 10.3259 16.3313C9.99366 17.1284 9.07611 17.5056 8.2775 17.1733ZM17.8054 9.42253C17.8054 8.03715 16.6759 6.90916 15.2885 6.90916C13.9002 6.90916 12.7708 8.03715 12.7708 9.42253C12.7708 10.8079 13.9002 11.9352 15.2885 11.9352C16.6759 11.9352 17.8054 10.8079 17.8054 9.42253ZM13.4015 9.41825C13.4015 8.37583 14.2484 7.53091 15.2921 7.53091C16.3365 7.53091 17.1834 8.37583 17.1834 9.41825C17.1834 10.4607 16.3365 11.3056 15.2921 11.3056C14.2484 11.3056 13.4015 10.4607 13.4015 9.41825Z" fill="#1A1918"/>
</svg>

<svg xmlns="http://www.w3.org/2000/svg" width="24" height="24" fill="none" viewBox="0 0 24 24"><path fill="#1A1918" d="M11.983 2C6.72 2 2.409 6.05 2 11.198l5.369 2.216a2.819 2.819 0 0 1 1.754-.488l2.388-3.455v-.049a3.779 3.779 0 0 1 7.555 0 3.78 3.78 0 0 1-3.778 3.772l-.086-.001-3.405 2.425.003.134a2.836 2.836 0 0 1-5.615.558l-3.84-1.585A10.018 10.018 0 0 0 11.983 22C17.515 22 22 17.522 22 12c0-5.523-4.485-10-10.017-10M8.277 17.173l-1.23-.507c.218.453.596.832 1.096 1.04a2.13 2.13 0 0 0 2.783-1.143c.218-.523.22-1.1.003-1.626a2.126 2.126 0 0 0-2.718-1.176l1.272.525a1.563 1.563 0 0 1 .843 2.045 1.567 1.567 0 0 1-2.049.842m9.528-7.75a2.519 2.519 0 0 0-2.516-2.514 2.519 2.519 0 0 0-2.518 2.514 2.518 2.518 0 0 0 5.034 0m-4.403-.005a1.89 1.89 0 0 1 1.89-1.887 1.89 1.89 0 0 1 1.891 1.887 1.89 1.89 0 0 1-1.89 1.888 1.89 1.89 0 0 1-1.891-1.888"/></svg>
